assets/images/logo-dark.svg

<svg width="97" height="25" viewBox="0 0 97 25" fill="none" xmlns="http://www.w3.org/2000/svg">
<path d="M20.852 25V20.14H5.84V15.28H20.312V10.456H5.84V5.74H20.852V0.879999H0.44V25H20.852ZM28.6916 25V0.879999H23.2916V25H28.6916ZM36.9181 5.128V0.879999H31.5181V5.128H36.9181ZM36.9181 25V6.964H31.5181V25H36.9181ZM44.6767 25L49.3207 18.952H49.6087L54.3967 25H60.9847L53.7847 16.108V15.784L60.9847 6.964H54.4687L49.8247 13.048H49.5367L44.7487 6.964H38.1607L45.3607 15.892V16.18L38.1607 25H44.6767ZM67.6798 5.128V0.879999H62.2798V5.128H67.6798ZM67.6798 25V6.964H62.2798V25H67.6798ZM75.9064 25V14.56C75.9064 12.292 76.7704 11.176 79.1824 11.176C81.3784 11.176 82.1704 12.04 82.1704 14.02V15.892H87.5704V12.904C87.5704 9.376 85.9144 6.604 81.8824 6.604C78.2464 6.604 76.3384 8.836 75.8344 11.752H75.5104V6.964H70.5064V25H75.9064Z" fill="#202636"/>
<path d="M96.1139 25V18.7H89.1659V25H96.1139Z" fill="#375EC1"/>
</svg>

<svg xmlns="http://www.w3.org/2000/svg" width="97" height="25" fill="none"><path fill="#202636" d="M20.852 25v-4.86H5.84v-4.86h14.472v-4.824H5.84V5.74h15.012V.88H.44V25h20.412Zm7.84 0V.88h-5.4V25h5.4Zm8.226-19.872V.88h-5.4v4.248h5.4Zm0 19.872V6.964h-5.4V25h5.4Zm7.759 0 4.644-6.048h.288L54.397 25h6.588l-7.2-8.892v-.324l7.2-8.82h-6.516l-4.644 6.084h-.288l-4.788-6.084H38.16l7.2 8.928v.288L38.16 25h6.516ZM67.68 5.128V.88h-5.4v4.248h5.4Zm0 19.872V6.964h-5.4V25h5.4Zm8.226 0V14.56c0-2.268.864-3.384 3.276-3.384 2.196 0 2.988.864 2.988 2.844v1.872h5.4v-2.988c0-3.528-1.656-6.3-5.688-6.3-3.636 0-5.544 2.232-6.048 5.148h-.324V6.964h-5.004V25h5.4Z"/><path fill="#375EC1" d="M96.114 25v-6.3h-6.948V25h6.948Z"/></svg>
